packages/icons/svg/Outline/heart.svg

<svg fill="none" height="24" viewBox="0 0 24 24" width="24" xmlns="http://www.w3.org/2000/svg"><path clip-rule="evenodd" d="m7.2197 6.00007c-.864 0-1.674.334-2.28.941-1.258 1.25999-1.258 3.31103.001 4.57303l7.059 7.071 7.06-7.071c1.259-1.262 1.259-3.31304 0-4.57303-1.212-1.215-3.348-1.213-4.56 0l-1.792 1.79499c-.376.37701-1.04.37701-1.416 0l-1.792-1.79599c-.606-.606-1.415-.94-2.28-.94zm4.78 14.99993c-.265 0-.52-.105-.707-.294l-7.76802-7.78c-2.036-2.04-2.036-5.359 0-7.399.984-.984 2.296-1.527 3.695-1.527s2.712.543 3.69502 1.527l1.085 1.087 1.085-1.086c.984-.985 2.296-1.528 3.696-1.528 1.398 0 2.711.543 3.694 1.527 2.037 2.04 2.037 5.359.001 7.399l-7.768 7.781c-.188.188-.442.293-.708.293z" fill="#6b7280" fill-rule="evenodd"/></svg>

<svg width="24" height="24" viewBox="0 0 24 24" fill="none" xmlns="http://www.w3.org/2000/svg">
<g id="Icon/Outline/heart">
<path id="Mask" fill-rule="evenodd" clip-rule="evenodd" d="M7.21968 6C6.35568 6 5.54568 6.334 4.93968 6.941C3.68168 8.201 3.68168 10.252 4.94068 11.514L11.9997 18.585L19.0597 11.514C20.3187 10.252 20.3187 8.201 19.0597 6.941C17.8477 5.726 15.7117 5.728 14.4997 6.941L12.7077 8.736C12.3317 9.113 11.6677 9.113 11.2917 8.736L9.49968 6.94C8.89368 6.334 8.08468 6 7.21968 6ZM11.9997 21C11.7347 21 11.4797 20.895 11.2927 20.706L3.52468 12.926C1.48868 10.886 1.48868 7.567 3.52468 5.527C4.50868 4.543 5.82068 4 7.21968 4C8.61868 4 9.93168 4.543 10.9147 5.527L11.9997 6.614L13.0847 5.528C14.0687 4.543 15.3807 4 16.7807 4C18.1787 4 19.4917 4.543 20.4747 5.527C22.5117 7.567 22.5117 10.886 20.4757 12.926L12.7077 20.707C12.5197 20.895 12.2657 21 11.9997 21Z" fill="#000000"/>
</g>
</svg>
